X:63
T:Worster Hornpipe, The
S:John Moore's Book 2
Z:Transcribed by Edmund Spriggs 04/2021
%%VWML: Moore1-4494-p47-0
F:http://www.vwml.org/record/Moore2/4494/p47
R:Hornpipe
M:C
L:1/8
K:A
E2|A2A2 Acec|defg agaf|ecAc ecAc|dBGB dBGB|
A2A2 Acec|defg agaf|eagf edcB|A2A2A2:|
|:cd|e2(ce) (Ae)(ce)|f2(df) (Bf)(df)|e2(ce) (Ae)(ce)|(EB)(GB) (EB)(GB)|
e2(ce) (Ae)(ce)|defg agaf|eagf edcB|A2A2A2:|

